assets/azureapplicationgroup/original.svg

<svg height="18" viewBox="0 0 18 18" width="18" xmlns="http://www.w3.org/2000/svg" xmlns:xlink="http://www.w3.org/1999/xlink"><linearGradient id="a" gradientUnits="userSpaceOnUse" x1="9" x2="9" y1="17.5" y2=".5"><stop offset="0" stop-color="#005ba1"/><stop offset=".168" stop-color="#0063ae"/><stop offset=".577" stop-color="#0072ca"/><stop offset=".815" stop-color="#0078d4"/></linearGradient><circle cx="9" cy="9" fill="url(#a)" r="8.5"/><path d="m7.776 10.632h2.448v2.448h-2.448zm-2.856-3.264h2.448v-2.448h-2.106a.34.34 0 0 0 -.342.342zm.342 5.712h2.106v-2.448h-2.448v2.106a.34.34 0 0 0 .342.342m-.342-2.856h2.448v-2.448h-2.448zm5.712 2.856h2.106a.34.34 0 0 0 .342-.342v-2.106h-2.448zm-2.856-2.856h2.448v-2.448h-2.448zm2.856 0h2.448v-2.448h-2.448zm0-5.3v2.444h2.448v-2.106a.34.34 0 0 0 -.342-.342zm-2.856 2.444h2.448v-2.448h-2.448z" fill="#fff"/></svg>

<svg xmlns="http://www.w3.org/2000/svg" width="18" height="18" viewBox="0 0 18 18"><defs><linearGradient id="a26c9420-22ea-437d-963a-d91a07052fe8" x1="9" x2="9" y1="17.5" y2=".5" gradientUnits="userSpaceOnUse"><stop offset="0" stop-color="#005ba1"/><stop offset=".168" stop-color="#0063ae"/><stop offset=".577" stop-color="#0072ca"/><stop offset=".815" stop-color="#0078d4"/></linearGradient></defs><g id="f18b5d86-430f-4653-9c0f-da3405ab6e83"><circle cx="9" cy="9" r="8.5" fill="url(#a26c9420-22ea-437d-963a-d91a07052fe8)"/><path id="ecfad4cd-858a-4086-9001-2b8defa8f20e" fill="#fff" d="M7.776 10.632h2.448v2.448H7.776ZM4.92 7.368h2.448V4.92H5.262a.34.34 0 0 0-.342.342Zm.342 5.712h2.106v-2.448H4.92v2.106a.34.34 0 0 0 .342.342m-.342-2.856h2.448V7.776H4.92Zm5.712 2.856h2.106a.34.34 0 0 0 .342-.342v-2.106h-2.448Zm-2.856-2.856h2.448V7.776H7.776Zm2.856 0h2.448V7.776h-2.448Zm0-5.3v2.444h2.448V5.262a.34.34 0 0 0-.342-.342ZM7.776 7.368h2.448V4.92H7.776Z"/></g></svg>
